X:53
T:Byrne's Hornpipe
R:hornpipe
Z:id:hn-hornpipe-53
M:C|
K:D
AG|F2GE AFD2|dA (3Bcd ecAe|fdge fded|cA (3Bcd ecAG|
F2GE AFD2|dA (3Bcd ecAe|fdge fdec|Addc d2:|
|:cd|eA~A2 efge|afdf bgeg|afdf geaf|gefd ecAG|
F2GE AFD2|dA (3Bcd ecAe|fdge fdec|Addc d2:|
<end>
<start>
